packages/ui-icons/src/Basic/16/Notification_16.svg

<svg viewBox="0 0 20 20" xmlns="http://www.w3.org/2000/svg">
<path fill-rule="evenodd" clip-rule="evenodd" d="M10 3C9.62452 3.00358 9.26384 3.14694 8.98835 3.40209C8.71285 3.65724 8.54231 4.00589 8.51 4.38C7.47706 4.72852 6.58104 5.39523 5.95046 6.28451C5.31988 7.17378 4.98715 8.23992 5 9.33V13.72L4 14.72V17H8C8 17.5304 8.21071 18.0391 8.58579 18.4142C8.96086 18.7893 9.46957 19 10 19C10.5304 19 11.0391 18.7893 11.4142 18.4142C11.7893 18.0391 12 17.5304 12 17H16V14.75L15 13.75V9.33C15.0113 8.24027 14.678 7.17484 14.0476 6.28587C13.4173 5.3969 12.5221 4.72985 11.49 4.38C11.4577 4.00589 11.2871 3.65724 11.0117 3.40209C10.7362 3.14694 10.3755 3.00358 10 3ZM11 17C11 17.2652 10.8946 17.5196 10.7071 17.7071C10.5196 17.8946 10.2652 18 10 18C9.73478 18 9.48043 17.8946 9.29289 17.7071C9.10536 17.5196 9 17.2652 9 17H11ZM15 16V15.15L14 14.15V9.33C14.0284 8.32804 13.6842 7.35116 13.034 6.58829C12.3838 5.82543 11.4738 5.33077 10.48 5.2V4.48C10.48 4.34739 10.4273 4.22021 10.3336 4.12645C10.2398 4.03268 10.1126 3.98 9.98 3.98C9.84739 3.98 9.72021 4.03268 9.62645 4.12645C9.53268 4.22021 9.48 4.34739 9.48 4.48V5.2C8.49441 5.34187 7.59533 5.841 6.95371 6.60246C6.31209 7.36393 5.97267 8.33463 6 9.33V14.13L5 15.13V16H15Z" />
</svg>

<svg viewBox="0 0 20 20" xmlns="http://www.w3.org/2000/svg"><path fill-rule="evenodd" clip-rule="evenodd" d="M10 3a1.51 1.51 0 0 0-1.49 1.38A5.16 5.16 0 0 0 5 9.33v4.39l-1 1V17h4a2 2 0 0 0 4 0h4v-2.25l-1-1V9.33a5.17 5.17 0 0 0-3.51-4.95A1.51 1.51 0 0 0 10 3Zm1 14a1 1 0 0 1-2 0h2Zm4-1v-.85l-1-1V9.33a4.05 4.05 0 0 0-3.52-4.13v-.72a.5.5 0 0 0-1 0v.72A4.06 4.06 0 0 0 6 9.33v4.8l-1 1V16h10Z"/></svg>
